X: 18664
T: I'll Get Wedded In My Auld Claes
R: jig
M: 6/8
K: Gmajor
d|:"G"gfg dBG|"Am"BAG E2D|"G"GAB BAG|"Em"GBe "D"def|
"G"gfg dBG|"Am"BAG E2D|"G"GBd "D"DFA|1 "G"BGG G2d:|2 "G"BGG G2B||
|:"D"c2A F2D|"G"G2B d2B|"Am"cec "D"AFD|"G"GBd "D"gfa|
"G"gdB GBd|"C"ecG EGc|"G"dBG "D"DFA|1 "G"BGG G2B:|2 "G"BGG G2d||
|:"G"dBd gbg|"Am"ece a2g|"D"~f3 def|"G"gba gfe|
"G"dBd gbg|"Am"ece a2g|"D"f2d cBA|"G"BGG G2d:|

